Origami/24x24/apps/chess.svg

<svg width="24" height="24" version="1.1" viewBox="0 0 24 24" xmlns="http://www.w3.org/2000/svg">
 <g transform="translate(0,-1028.3622)">
  <path d="m13.017466 1030.8624c-0.111 0.056-0.238 0.098-0.338 0.1749-0.1925 0.1495-0.38 0.3092-0.5525 0.4814-0.1895 0.1888-0.3855 0.296-0.662 0.3535-0.6645 0.1363-1.339 0.2872-1.9599998 0.5508-1.381 0.5881-2.29501 1.6959-2.94651 3.0284-0.578 1.1845-0.5885 2.4685-0.541 3.7585 0.098 2.6614 2.01751 4.6044 2.85551 6.6524h0.217c-0.327 0-0.59 0.2225-0.59 0.499v1.0019c0 0.2765 0.263 0.499 0.59 0.499h-0.8185c-0.4275 0-0.77151 0.334-0.77151 0.749v1.502c0 0.415 0.34401 0.749 0.77151 0.749h6.9569998c0.4275 0 0.7715-0.334 0.7715-0.749v-1.502c0-0.415-0.344-0.749-0.7715-0.749h-0.8185c0.327 0 0.59-0.2225 0.59-0.499v-1.0019c0-0.2765-0.263-0.499-0.59-0.499h0.091c0.212-0.199 0.4145-0.5555 0.6035-0.759 0.8565-0.917 1.0095-2.2185 0.408-3.333-0.294-0.544-0.7075-0.9855-1.1845-1.363-0.537-0.4249-1.092-0.8254-1.6335-1.2439-0.155-0.12-0.292-0.2625-0.498-0.4505 0.5105 0.109 0.918 0.2505 1.329 0.2715 0.7095 0.036 1.3215 0.2735 1.8895 0.6914 0.2195 0.1616 0.4745 0.2911 0.7315 0.3811 0.334 0.116 0.5 0.033 0.699-0.2725 0.0525-0.081 0.084-0.1736 0.134-0.2795 0.3955 0.01 0.613-0.2255 0.7215-0.5955 0.037-0.1266 0.1-0.2436 0.1455-0.3665 0.3075-0.824 0.1495-1.5535-0.4395-2.1895-0.1315-0.1455-0.288-0.2665-0.4255-0.406-0.459-0.464-0.9205-0.9256-1.368-1.4005-0.325-0.3455-0.6175-0.7215-0.9455-1.0643-0.1625-0.1689-0.2995-0.338-0.375-0.5645-0.114-0.3394-0.328-0.6007-0.6395-0.7773-0.1105-0.063-0.216-0.1355-0.296-0.1875-0.1285-0.3788 0.176-0.8527-0.34-1.0908z" style="opacity:.2"/>
  <path d="m13.017466 1030.3623c-0.111 0.056-0.238 0.098-0.338 0.1749-0.1925 0.1495-0.38 0.3092-0.5525 0.4814-0.1895 0.1888-0.3855 0.296-0.662 0.3535-0.6645 0.1363-1.339 0.2872-1.9599998 0.5508-1.381 0.5881-2.29501 1.6959-2.94651 3.0284-0.578 1.1845-0.5885 2.4685-0.541 3.7585 0.098 2.6614 2.01751 4.6044 2.85551 6.6524h0.217c-0.327 0-0.59 0.2225-0.59 0.499v1.0019c0 0.2765 0.263 0.499 0.59 0.499h-0.8185c-0.4275 0-0.77151 0.334-0.77151 0.749v1.502c0 0.415 0.34401 0.749 0.77151 0.749h6.9569998c0.4275 0 0.7715-0.334 0.7715-0.749v-1.502c0-0.415-0.344-0.749-0.7715-0.749h-0.8185c0.327 0 0.59-0.2225 0.59-0.499v-1.0019c0-0.2765-0.263-0.499-0.59-0.499h0.091c0.212-0.199 0.4145-0.5555 0.6035-0.759 0.8565-0.917 1.0095-2.2185 0.408-3.333-0.294-0.544-0.7075-0.9855-1.1845-1.363-0.537-0.4249-1.092-0.8254-1.6335-1.2439-0.155-0.12-0.292-0.2625-0.498-0.4505 0.5105 0.109 0.918 0.2505 1.329 0.2715 0.7095 0.036 1.3215 0.2735 1.8895 0.6914 0.2195 0.1616 0.4745 0.2911 0.7315 0.3811 0.334 0.116 0.5 0.033 0.699-0.2725 0.0525-0.081 0.084-0.1736 0.134-0.2795 0.3955 0.01 0.613-0.2255 0.7215-0.5955 0.037-0.1266 0.1-0.2436 0.1455-0.3665 0.3075-0.824 0.1495-1.5535-0.4395-2.1895-0.1315-0.1455-0.288-0.2665-0.4255-0.406-0.459-0.464-0.9205-0.9256-1.368-1.4005-0.325-0.3455-0.6175-0.7215-0.9455-1.0643-0.1625-0.1689-0.2995-0.338-0.375-0.5645-0.114-0.3394-0.328-0.6007-0.6395-0.7773-0.1105-0.063-0.216-0.1355-0.296-0.1875-0.1285-0.3788 0.176-0.8527-0.34-1.0908z" style="fill:#4f4f4f"/>
  <path transform="translate(0,1028.3622)" d="m13.017578 2c-0.111 0.056-0.23789 0.0988812-0.33789 0.1757812-0.192501 0.1495-0.380235 0.3082688-0.552735 0.4804688-0.1895 0.1888-0.385609 0.2960156-0.662109 0.3535156-0.6645 0.1363-1.337985 0.2871813-1.9589846 0.5507813-1.381 0.5881-2.2957656 1.6967969-2.9472656 3.0292969-0.4899571 1.0040728-0.566047 2.0798075-0.5507813 3.1699218 0.0185501-0.9180683 0.1359444-1.8197933 0.5507813-2.6699218 0.6515-1.3325 1.5662656-2.4411969 2.9472656-3.0292969 0.6209996-0.2636 1.2944846-0.4144813 1.9589846-0.5507813 0.2765-0.0575 0.472609-0.1647156 0.662109-0.3535156 0.1725-0.1722 0.360234-0.3309688 0.552735-0.4804688 0.1-0.0769 0.22689-0.1197812 0.33789-0.1757812 0.516 0.2381 0.211344 0.7129969 0.339844 1.0917969 0.08 0.052 0.186375 0.1245 0.296875 0.1875 0.3115 0.1766 0.524672 0.4379437 0.638672 0.7773437 0.0755 0.2265 0.2125 0.3955532 0.375 0.5644532 0.328 0.3427999 0.620312 0.7189531 0.945312 1.0644531 0.4475 0.4749 0.910141 0.9363906 1.369141 1.4003906 0.1375 0.1395 0.292328 0.2587969 0.423828 0.4042969 0.333231 0.3598216 0.51338 0.7539702 0.564453 1.1738281 0.085467-0.6149299-0.102118-1.1746008-0.564453-1.6738281-0.1315-0.1455-0.286328-0.2647969-0.423828-0.4042969-0.459-0.464-0.921641-0.9254906-1.369141-1.4003906-0.325-0.3455-0.617312-0.7216532-0.945312-1.0644531-0.1625-0.1689-0.2995-0.3379532-0.375-0.5644532-0.114-0.3394-0.327172-0.6007437-0.638672-0.7773437-0.1105-0.063-0.216875-0.1355-0.296875-0.1875-0.1285-0.3788 0.176156-0.8536969-0.339844-1.0917969zm-0.820312 8.351562c0.206 0.188 0.343047 0.329219 0.498046 0.449219 0.5415 0.4185 1.095813 0.819241 1.632813 1.244141 0.477 0.3775 0.889594 0.819281 1.183594 1.363281 0.203589 0.377225 0.31301 0.775918 0.345703 1.173828 0.054155-0.559042-0.056361-1.137714-0.345703-1.673828-0.294-0.544-0.706594-0.985781-1.183594-1.363281-0.434914-0.344125-0.880472-0.673173-1.322266-1.007813-0.249711-0.055396-0.509619-0.121711-0.808593-0.185547zm-3.4980472 6.779297c-0.1206443 0.091236-0.1992188 0.218864-0.1992188 0.367188v0.501953c0-0.2765 0.2628438-0.5 0.5898438-0.5h-0.2167969c-0.0506397-0.123759-0.1159304-0.245967-0.1738281-0.369141zm6.1035152 0.001953c-0.098313 0.135815-0.199448 0.270236-0.302734 0.367188h-0.089844c0.327 0 0.589844 0.2235 0.589844 0.5v-0.501953c0-0.147472-0.07783-0.27405-0.197266-0.365235zm-6.5312496 1.867188c-0.4275 0-0.7714844 0.333047-0.7714844 0.748047v0.5c0-0.415 0.3439844-0.748047 0.7714844-0.748047h0.8183594c-0.327 0-0.5898438-0.221547-0.5898438-0.498047v-0.001953h-0.2285156zm6.7285156 0v0.001953c0 0.2765-0.262844 0.498047-0.589844 0.498047h0.81836c0.4275 0 0.771484 0.333047 0.771484 0.748047v-0.5c0-0.415-0.343984-0.748047-0.771484-0.748047h-0.228516z" style="fill:#ffffff;opacity:.1"/>
 </g>
</svg>

<svg xmlns="http://www.w3.org/2000/svg" width="24" height="24" version="1.1" viewBox="0 0 24 24">
 <g transform="translate(0,-1028.3622)">
  <path style="opacity:0.2" d="m 13.017466,1030.8624 c -0.111,0.056 -0.238,0.098 -0.338,0.1749 -0.1925,0.1495 -0.38,0.3092 -0.5525,0.4814 -0.1895,0.1888 -0.3855,0.296 -0.662,0.3535 -0.6645,0.1363 -1.339,0.2872 -1.9599998,0.5508 -1.381,0.5881 -2.29501,1.6959 -2.94651,3.0284 -0.578,1.1845 -0.5885,2.4685 -0.541,3.7585 0.098,2.6614 2.01751,4.6044 2.85551,6.6524 l 0.217,0 c -0.327,0 -0.59,0.2225 -0.59,0.499 l 0,1.0019 c 0,0.2765 0.263,0.499 0.59,0.499 l -0.8185,0 c -0.4275,0 -0.77151,0.334 -0.77151,0.749 l 0,1.502 c 0,0.415 0.34401,0.749 0.77151,0.749 l 6.9569998,0 c 0.4275,0 0.7715,-0.334 0.7715,-0.749 l 0,-1.502 c 0,-0.415 -0.344,-0.749 -0.7715,-0.749 l -0.8185,0 c 0.327,0 0.59,-0.2225 0.59,-0.499 l 0,-1.0019 c 0,-0.2765 -0.263,-0.499 -0.59,-0.499 l 0.091,0 c 0.212,-0.199 0.4145,-0.5555 0.6035,-0.759 0.8565,-0.917 1.0095,-2.2185 0.408,-3.333 -0.294,-0.544 -0.7075,-0.9855 -1.1845,-1.363 -0.537,-0.4249 -1.092,-0.8254 -1.6335,-1.2439 -0.155,-0.12 -0.292,-0.2625 -0.498,-0.4505 0.5105,0.109 0.918,0.2505 1.329,0.2715 0.7095,0.036 1.3215,0.2735 1.8895,0.6914 0.2195,0.1616 0.4745,0.2911 0.7315,0.3811 0.334,0.116 0.5,0.033 0.699,-0.2725 0.0525,-0.081 0.084,-0.1736 0.134,-0.2795 0.3955,0.01 0.613,-0.2255 0.7215,-0.5955 0.037,-0.1266 0.1,-0.2436 0.1455,-0.3665 0.3075,-0.824 0.1495,-1.5535 -0.4395,-2.1895 -0.1315,-0.1455 -0.288,-0.2665 -0.4255,-0.406 -0.459,-0.464 -0.9205,-0.9256 -1.368,-1.4005 -0.325,-0.3455 -0.6175,-0.7215 -0.9455,-1.0643 -0.1625,-0.1689 -0.2995,-0.338 -0.375,-0.5645 -0.114,-0.3394 -0.328,-0.6007 -0.6395,-0.7773 -0.1105,-0.063 -0.216,-0.1355 -0.296,-0.1875 -0.1285,-0.3788 0.176,-0.8527 -0.34,-1.0908 z"/>
  <path style="fill:#4f4f4f" d="m 13.017466,1030.3623 c -0.111,0.056 -0.238,0.098 -0.338,0.1749 -0.1925,0.1495 -0.38,0.3092 -0.5525,0.4814 -0.1895,0.1888 -0.3855,0.296 -0.662,0.3535 -0.6645,0.1363 -1.339,0.2872 -1.9599998,0.5508 -1.381,0.5881 -2.29501,1.6959 -2.94651,3.0284 -0.578,1.1845 -0.5885,2.4685 -0.541,3.7585 0.098,2.6614 2.01751,4.6044 2.85551,6.6524 l 0.217,0 c -0.327,0 -0.59,0.2225 -0.59,0.499 l 0,1.0019 c 0,0.2765 0.263,0.499 0.59,0.499 l -0.8185,0 c -0.4275,0 -0.77151,0.334 -0.77151,0.749 l 0,1.502 c 0,0.415 0.34401,0.749 0.77151,0.749 l 6.9569998,0 c 0.4275,0 0.7715,-0.334 0.7715,-0.749 l 0,-1.502 c 0,-0.415 -0.344,-0.749 -0.7715,-0.749 l -0.8185,0 c 0.327,0 0.59,-0.2225 0.59,-0.499 l 0,-1.0019 c 0,-0.2765 -0.263,-0.499 -0.59,-0.499 l 0.091,0 c 0.212,-0.199 0.4145,-0.5555 0.6035,-0.759 0.8565,-0.917 1.0095,-2.2185 0.408,-3.333 -0.294,-0.544 -0.7075,-0.9855 -1.1845,-1.363 -0.537,-0.4249 -1.092,-0.8254 -1.6335,-1.2439 -0.155,-0.12 -0.292,-0.2625 -0.498,-0.4505 0.5105,0.109 0.918,0.2505 1.329,0.2715 0.7095,0.036 1.3215,0.2735 1.8895,0.6914 0.2195,0.1616 0.4745,0.2911 0.7315,0.3811 0.334,0.116 0.5,0.033 0.699,-0.2725 0.0525,-0.081 0.084,-0.1736 0.134,-0.2795 0.3955,0.01 0.613,-0.2255 0.7215,-0.5955 0.037,-0.1266 0.1,-0.2436 0.1455,-0.3665 0.3075,-0.824 0.1495,-1.5535 -0.4395,-2.1895 -0.1315,-0.1455 -0.288,-0.2665 -0.4255,-0.406 -0.459,-0.464 -0.9205,-0.9256 -1.368,-1.4005 -0.325,-0.3455 -0.6175,-0.7215 -0.9455,-1.0643 -0.1625,-0.1689 -0.2995,-0.338 -0.375,-0.5645 -0.114,-0.3394 -0.328,-0.6007 -0.6395,-0.7773 -0.1105,-0.063 -0.216,-0.1355 -0.296,-0.1875 -0.1285,-0.3788 0.176,-0.8527 -0.34,-1.0908 z"/>
  <path style="fill:#ffffff;opacity:0.1" d="M 13.017578 2 C 12.906578 2.056 12.779688 2.0988812 12.679688 2.1757812 C 12.487187 2.3252812 12.299453 2.48405 12.126953 2.65625 C 11.937453 2.84505 11.741344 2.9522656 11.464844 3.0097656 C 10.800344 3.1460656 10.126859 3.2969469 9.5058594 3.5605469 C 8.1248594 4.1486469 7.2100938 5.2573438 6.5585938 6.5898438 C 6.0686367 7.5939166 5.9925468 8.6696513 6.0078125 9.7597656 C 6.0263626 8.8416973 6.1437569 7.9399723 6.5585938 7.0898438 C 7.2100938 5.7573438 8.1248594 4.6486469 9.5058594 4.0605469 C 10.126859 3.7969469 10.800344 3.6460656 11.464844 3.5097656 C 11.741344 3.4522656 11.937453 3.34505 12.126953 3.15625 C 12.299453 2.98405 12.487187 2.8252812 12.679688 2.6757812 C 12.779688 2.5988812 12.906578 2.556 13.017578 2.5 C 13.533578 2.7381 13.228922 3.2129969 13.357422 3.5917969 C 13.437422 3.6437969 13.543797 3.7162969 13.654297 3.7792969 C 13.965797 3.9558969 14.178969 4.2172406 14.292969 4.5566406 C 14.368469 4.7831406 14.505469 4.9521938 14.667969 5.1210938 C 14.995969 5.4638937 15.288281 5.8400469 15.613281 6.1855469 C 16.060781 6.6604469 16.523422 7.1219375 16.982422 7.5859375 C 17.119922 7.7254375 17.27475 7.8447344 17.40625 7.9902344 C 17.739481 8.350056 17.91963 8.7442046 17.970703 9.1640625 C 18.05617 8.5491326 17.868585 7.9894617 17.40625 7.4902344 C 17.27475 7.3447344 17.119922 7.2254375 16.982422 7.0859375 C 16.523422 6.6219375 16.060781 6.1604469 15.613281 5.6855469 C 15.288281 5.3400469 14.995969 4.9638937 14.667969 4.6210938 C 14.505469 4.4521938 14.368469 4.2831406 14.292969 4.0566406 C 14.178969 3.7172406 13.965797 3.4558969 13.654297 3.2792969 C 13.543797 3.2162969 13.437422 3.1437969 13.357422 3.0917969 C 13.228922 2.7129969 13.533578 2.2381 13.017578 2 z M 12.197266 10.351562 C 12.403266 10.539562 12.540313 10.680781 12.695312 10.800781 C 13.236812 11.219281 13.791125 11.620022 14.328125 12.044922 C 14.805125 12.422422 15.217719 12.864203 15.511719 13.408203 C 15.715308 13.785428 15.824729 14.184121 15.857422 14.582031 C 15.911577 14.022989 15.801061 13.444317 15.511719 12.908203 C 15.217719 12.364203 14.805125 11.922422 14.328125 11.544922 C 13.893211 11.200797 13.447653 10.871749 13.005859 10.537109 C 12.756148 10.481713 12.49624 10.415398 12.197266 10.351562 z M 8.6992188 17.130859 C 8.5785745 17.222095 8.5 17.349723 8.5 17.498047 L 8.5 18 C 8.5 17.7235 8.7628438 17.5 9.0898438 17.5 L 8.8730469 17.5 C 8.8224072 17.376241 8.7571165 17.254033 8.6992188 17.130859 z M 14.802734 17.132812 C 14.704421 17.268627 14.603286 17.403048 14.5 17.5 L 14.410156 17.5 C 14.737156 17.5 15 17.7235 15 18 L 15 17.498047 C 15 17.350575 14.92217 17.223997 14.802734 17.132812 z M 8.2714844 19 C 7.8439844 19 7.5 19.333047 7.5 19.748047 L 7.5 20.248047 C 7.5 19.833047 7.8439844 19.5 8.2714844 19.5 L 9.0898438 19.5 C 8.7628438 19.5 8.5 19.278453 8.5 19.001953 L 8.5 19 L 8.2714844 19 z M 15 19 L 15 19.001953 C 15 19.278453 14.737156 19.5 14.410156 19.5 L 15.228516 19.5 C 15.656016 19.5 16 19.833047 16 20.248047 L 16 19.748047 C 16 19.333047 15.656016 19 15.228516 19 L 15 19 z" transform="translate(0,1028.3622)"/>
 </g>
</svg>
